X: 2047
T: Asiatic
R: polka
M: 2/4
K: Dmajor
A>B=cA|BFGE|FDDE|F2 A2|A/B/A/B/ =cA|BFAE|FDDE|
F2 A2|:FAD>E|FAD>E|FA/B/ =cA|BFAE|FDDE|F2 A2:|
|:d>B=cA|BFAE|FDDE|F2 A2|dd/B/ =cc/A/|BFAE|
FDDE|F2 A2:|

